X: 4363
T: Bolger's
R: hornpipe
M: 4/4
K: Gmajor
|:(3def|g2 fe d2 BA|GF GA BE E2|DG ~G2 BG ~G2|cA AG A2 (3def|
g2 fe d2 BA|GF GA BD ~D2|DE FG Ag fe|1 dB cA G2 (3def:|2 dB cA G2 dc||
|:BD GB dg fg|eG cd ed ge|dg fe dB GB|cA AG A2 dc|
BD GB dg fg|eG cd ec ge|dg fe dB cA|1 G2 B2 G2 dc:|2 G2 B2 G2||

